!!!COA:	Josquin des Prez
!!!CDT:	~1450-1521/08/27
!!!COM2: Pipelare, Matthaeus
!!!CDT2: ~1450///-~1515///
!!!OPR:	Missa Mi mi
!!!ONM:	1
!!!OTL:	Kyrie
!!!AGN:	Mass; Kyrie
!!!SCT:	Jos9901
!!!voices:	4
!!!voices-OPR:	4
**kern	**kern	**kern	**kern
*staff4	*staff3	*staff2	*staff1
*Ivox	*Ivox	*Ivox	*Ivox
*I"Bassus	*I"Tenor	*I"Altus	*I"Superius
*I'B	*I'T	*I'A	*I'S
*>[A,B,C]	*>[A,B,C]	*>[A,B,C]	*>[A,B,C]
*>A	*>A	*>A	*>A
*clefF4	*clefGv2	*clefGv2	*clefG2
*k[]	*k[]	*k[]	*k[]
*M3/1	*M3/1	*M3/1	*M3/1
*met(O)	*met(O)	*met(O)	*met(O)
!!section: Kyrie I
!!!OMD: Kyrie I
=1.	=1.	=1.	=1-
0.r	1.B	0.r	1r
.	.	.	1r
.	2E/	.	.
.	1E	.	[1b
=2	=2	=2	=2
0.r	2r	0.r	2b\]
.	2E/	.	2e/
.	2.G/	.	1e
.	4A/	.	.
.	2B\	.	2r
.	[2c\	.	2e/
=3	=3	=3	=3
0.r	2c\]	1.e	2.g/
.	4B\	.	.
.	4A/	.	4a/
.	2G/	.	2b\
.	1A	2A/	1cc
.	.	1A	.
.	4G/	.	4b\
.	4F/	.	4a/
=4	=4	=4	=4
0.r	2G/	2r	2b\
.	1A	2A/	1cc
.	.	2c\	.
.	4G/	2d\	4b\
.	4F/	.	4a/
.	1E	1e	1g
=5	=5	=5	=5
1.E	2r	2.e\	2r
.	1G	.	1g
.	.	8d\L	.
.	.	8c\J	.
.	.	2B\	.
2AA/	2F/	2A/	1a
1AA	1E	1c	.
.	.	.	4g/
.	.	.	4f/
=6	=6	=6	=6
2r	2r	2.c\	1.e
2AA/	1E	.	.
.	.	8B/L	.
.	.	8A/J	.
2C/	.	2G/	.
2D\	2D/	2F/	2f/
1E	1C	1E	2g/
.	.	.	[2e/
=7	=7	=7	=7
0.EE;l	0.BB;l	0.E;l	2e/]
.	.	.	4d/
.	.	.	4c/
.	.	.	0B;l
!!LO:LB:i:g=z
=8||	=8||	=8||	=8||
*>B	*>B	*>B	*>B
*clefF4	*clefGv2	*clefGv2	*clefG2
*k[]	*k[]	*k[]	*k[]
*M2/1	*M2/1	*M2/1	*M2/1
*met(C2)	*met(C2)	*met(C2)	*met(C2)
!!section: Christe
!!!OMD: Christe
[0E	[0B	0G	[0e
=9.	=9.	=9.	=9.
0E]	1.B]	0G	1.e]
.	4A/	.	4d/
.	4G/	.	4c/
=10	=10	=10	=10
1F	1A	1r	1d
1E	[1G	1C	[1e
=11.	=11.	=11.	=11.
0C	1G]	0E	1e]
.	[1c	.	1g
=12	=12	=12	=12
0D	2c\]	0F	0f
.	4B\	.	.
.	4A/	.	.
.	1B	.	.
=13.	=13.	=13.	=13.
[0C	0c	1G	[0e
.	.	2r	.
.	.	2G/	.
=14	=14	=14	=14
0C]	1r	2A/	0e]
.	.	1G	.
.	1G	.	.
.	.	2E/	.
=15.	=15.	=15.	=15.
0r	1A	1F	1r
.	1B	1G	1d
=16	=16	=16	=16
0r	1c	1C	2c/
.	.	.	1e
.	2A/	2r	.
.	[2B\	[2G/	[2d/
=17.	=17.	=17.	=17.
0r	2B\]	4G/]	4d/]
.	.	4A/	4c/
.	1A	2F/	4B/
.	.	.	4A/
.	.	1E	1B
.	2G#i/	.	.
=18	=18	=18	=18
1r	1A	1F	0A
[1AA	2r	1E	.
.	[2A/	.	.
=19.	=19.	=19.	=19.
1AA]	2A/]	2C/	1r
.	4G/	2.c\	.
.	4F/	.	.
1C	2E/	.	1e
.	.	4B\	.
.	2C/	[2A/	.
=20	=20	=20	=20
1BB	1D	2A/]	1d
.	.	2G/	.
1AA	1E	2.A/	1c
.	.	4B\	.
=21.	=21.	=21.	=21.
[0E	0C	2c\	[0g
.	.	4B\	.
.	.	4A/	.
.	.	2.G/	.
.	.	4A/	.
=22	=22	=22	=22
0E]	2.G/	2B\	0g]
.	.	2c\	.
.	4A/	.	.
.	2B\	2B\	.
.	[2c\	[2e\	.
=23.	=23.	=23.	=23.
0F	4c\]	2e\]	0a
.	4B\	.	.
.	4A/	4d\	.
.	4G/	4c\	.
.	1A	1d	.
=24	=24	=24	=24
0E;l	0B;l	0e;l	0g;l
!!LO:LB:i:g=z
=25||	=25||	=25||	=25||
*>C	*>C	*>C	*>C
*clefF4	*clefGv2	*clefGv2	*clefG2
*k[]	*k[]	*k[]	*k[]
*M3/1	*M3/1	*M3/1	*M3/1
*met(O|)	*met(O|)	*met(O|)	*met(O|)
!!section: Kyrie II
!!!OMD: Kyrie II
0.r	0.r	1.e	1.g
.	.	2c\	2a/
.	.	1d	1b
=26	=26	=26	=26
0.r	0.r	0e	1.cc
.	.	.	1b
.	.	1e	.
.	.	.	4a/
.	.	.	4g/
=27	=27	=27	=27
0.r	1r	2f\	2a/
.	.	2e\	1g
.	1r	1c	.
.	.	.	1cc
.	1G	1d	.
.	.	.	2b\
=28	=28	=28	=28
0.r	2.A/	0c	2.cc\
.	4G/	.	4b\
.	2F/	.	2a/
.	2E/	.	2.g/
.	1C	2.c\	.
.	.	.	4f/
.	.	.	2e/
.	.	8B/L	.
.	.	8A/J	.
=29	=29	=29	=29
1r	1G	2B\	2d/
.	.	1G	2e/
1r	2E/	.	4d/
.	.	.	4c/
.	2F/	2F/	1c
1GG	1D	1G	.
.	.	.	2B/
=30	=30	=30	=30
2AA/	1C	2r	1c
1C	.	1E	.
.	1r	.	1r
2BB/	.	2D/	.
1AA	1C	2E/	1c
.	.	2F/	.
=31	=31	=31	=31
2.GG/	0G	2D/	2.B/
.	.	2E/	.
4AA/	.	.	4c/
2BB/	.	2D/	2d/
2.C/	.	2C/	2.e/
.	1G	1E	.
4D\	.	.	4f/
2E\	.	.	2g/
=32	=32	=32	=32
1AA	1A	2r	4f/
.	.	.	2e/
.	.	2E/	.
.	.	.	8d/L
.	.	.	8c/J
1r	2E/	1G	2B/
.	2G/	.	1e
1r	1F	1A	.
.	.	.	2d/
=33	=33	=33	=33
0.EE;l	0.E;l	0.B;l	0.e;l
==	==	==	==
*-	*-	*-	*-
!!!RDF**kern: l=long note in original notation
!!!RDF**kern: i=editorial accidental
!!!RDF**kern: V=start of tuplet marker
!!!RDF**kern: Z=end of tuplet marker
!!!ENC:	Jesse Rodin; Victoria Chang 2012/02/15
!!!END:	2012/02/15/
!!!EED:	Jesse Rodin
!!!EEV:	2012/08/08/
!!attribution-level@Jos: 5 (doubtful)
!!!ONB:	Translated from MusicXML and edited on 2012/08/08/ by Craig Sapp
!!muse2ps: T^@{OPR}^u^@{ONM}{. }@{OTL}^C^Pipelare/Josquin?\n@{SCT}^i2I150v95,95,95,150Q16
